X:1
T:Quel vermiglietta
T:Qual vermiglietta
T:Giovanni Maria Artusi
T:Source : Canzonette a 4 voci---Libro Primo---Venetia---G.Vincenti---1598. Editor : André Vierendeels (26/02/14).
C:Giovanni Maria Artusi
%%score [ 1 2 [ 3 4 ] ]
L:1/8
Q:1/4=80
M:4/4
K:C
V:1 treble nm="Canto 1" snm="C 1"
V:2 treble nm="Canto 2" snm="C 2"
V:3 treble nm="Alto" snm="A"
V:4 treble-8 nm="Tenor" snm="T"
V:1
 g4 e3 g | f2 e2 d4 | c8 | z4 g2 gg | f3 e d2 d2 | e4 e2 f2- | fe ed/c/ d4 | e8 | z8 | z4 z2 g2 | %10
w: Qual ver- mi-|gliet- t'au- ro-|ra,|ch'il suo bel|crin di fres- che|ros' in- fio-||ra,||qual|
 e3 a f2 e2 | d4 e4 | c2 cc B2 B2 | c2 c2 c4 | B2 c4 B2 | c2 g2 e2 e2 | ^f2 f2 g4 | e2 e2 A2 A2 | %18
w: ver- mi- gliet- t'au-|ro- ra,|ch'il suo bel crin di|fres- che ros'|in- fio- *|ra, la mia ce-|le- ste per-|la, la mia ce-|
 B2 B2 c3 B | A4 B2 A2 | d2 d2 e2 e2 | d8 | d4 e4 | e2 e2 e4 | e6 dc | B2 B2 B4- | B2 AG A2 c2 | %27
w: le- ste per- *|* la, la|mia ce- le- ste|per-|la, la|terr' ogn' hor|d'al- te vir-|tu- di, d'al|_ te vir- tu- d'im-|
 c2 BA B4 | c2 g2 e2 e2 | ^f2 f2 g4 | e2 e2 A2 A2 | B2 B2 c3 B | A4 B2 A2 | d2 d2 e2 e2 | d8 | %35
w: per- * * *|la, la mia ce-|le- ste per-|la, la mia ce-|le- ste per- *|* la, la|mia ce- le- ste|per-|
 d4 e4 | e2 e2 e4 | e6 dc | B2 B2 B4- | B2 AG A2 c2 | c2 BA B4 | c8 |] %42
w: la, la|terr' ogn' hor|d'al- te vir-|tu- di, d'al|_ tri vir- tu- d'im-|per- * * *|la.|
V:2
 z8 | z4 z2 g2 | e3 g f2 e2 | d4 e4 | c2 cc B2 B2 | c2 c2 c4 | B2 c4 B2 | c8 | g4 e3 g | f2 e2 d4 | %10
w: |Qual|ver- mi- gliet- t'au-|ro- ra,|ch'il suo bel crin di|fres- che ros'|in fio- *|ra,|qual ver- mi-|gliet- t'au- ro-|
 c8 | z4 g2 gg | f3 e d2 d2 | e4 e2 f2- | fe ed/c/ d4 | e8 | z2 d2 B2 B2 | ^c2 c2 d4 | %18
w: ra,|ch'il suo bel|crin di fres- che|ros' in fio-||ra,|la mia ce-|le- ste per-|
 d2 d2 e2 e2 | d8 | d4 c4- | c2 B2 A4 | B4 c4 | c2 c2 c4 | c2 BA G2 G2 | g2 fe d4 |"^b" d6 e2 | %27
w: la, la mia ce-|le-|ste per-||la, la|terr' ogn' hor|d'al- te vir- tu- di,|d'al- te vir- tu-|di im-|
 d8 | e8 | z2 d2 B2 B2 | ^c2 c2 d4 | d2 d2 e2 e2 | d8 | d4 c4- | c2 B2 A4 | B4 c4 | c2 c2 c4 | %37
w: per-|la,|la mia ce-|le- ste per-|la, la mia ce-|le-|ste per-||la, la|terr' ogn' hor|
 c2 BA G2 G2 | g2 fe d4 |"^b" d6 e2 | d8 | e8 |] %42
w: d'al- te vir- tu- di,|d'al- te vir- tu-|di im-|per-|la.|
V:3
 z2 G2 A3 G | AB c4 B2 | c3 B A2 G2 | GG G2 G4 | A2 AA G2 G2 | G2 G2 A4 | D2 G2 G4 | G8 | %8
w: Qual ver- mi-|gliet- t'au- ro- *|ra, qual ver- mi-|gliet- t'au- ro- ra,|ch'il suo bel crin di|fes- che ros'|in fi- o-|ra,|
 z2 G2 A3 G | AB c4 B2 | c3 B A2 G2 | GG G2 G4 | A2 AA G2 G2 | G2 G2 A4 | D2 G2 G4 | G8 | z8 | %17
w: qual ver- mi-|gliet- t'au- ro- *|ra qual ver- mi|gliet- t'au- ro- ra,|ch'il suo bel crin di|fes- che ros-|in fi- o-|ra,||
 z2 A2 ^F2 F2 | G6 G2 | A4 D2 ^F2 | G3 G G4 | ^F2 G4 F2 | G4 G4 | G2 G2 G4 | z8 | z2 G4 FE | %26
w: la mia ce-|le- ste|per- la, la|mia ce- le-|ste per- *|la, la|terr' ogn' hor||d'al te vir-|
 DE FG ^F2 G2 | G8 | G8 | z8 | z2 A2 ^F2 F2 | G6 G2 | A4 D2 ^F2 | G3 G G4 | ^F2 G4 F2 | G4 G4 | %36
w: tu- * * * * d'im-|per-|la,||la mia ce-|le- ste|per- la, la|mia ce- le-|ste per- *|la, la|
 G2 G2 G4 | z8 | z2 G4 FE | DE FG ^F2 G2 | G8 | G8 |] %42
w: terr' ogn' hor||d'al- te vir-|tu- * * * * d'im-|per-|la.|
V:4
 z8 | z4 G4 | A3 G AB c2- | c2 B2 c4 | F2 FF G2 G2 | c3 B A2 F2 | G8 | C8 | z8 | z4 G4 | %10
w: |Qual|ver- mi- gliet- t'au- ro-|* * ra,|ch'il suo bel crin di|fres- che ros' in|fio-|ra,||qual|
 A3 G AB c2- | c2 B2 c4 | F2 FF G2 G2 | c3 B A2 F2 | G8 | C8 | z8 | z4 z2 D2 | G2 G2 E2 E2 | %19
w: ver- mi- gliet- t'au- ro-|* * ra,|ch'il suo bel crin di|fres- che ros' in|fio-|ra,||la|mia ce- le- ste|
 ^F4 G2 d2 | B2 B2 c2 c2 | d8 | G4 C4 | C2 C2 C4 | c6 BA | G2 G2 G4- | G2 FE D2 C2 | G8 | C8 | z8 | %30
w: per- la, la|mia ce- le- sta|per-|la, la|terr' ogn' hor|d'al- te vir-|tu- di, d'al|_ te vir- tu- d'im-|per-|la,||
 z4 z2 D2 | G2 G2 E2 E2 | ^F4 G2 d2 | B2 B2 c2 c2 | d8 | G4 C4 | C2 C2 C4 | c6 BA | G2 G2 G4- | %39
w: la|mia ce- le- ste|par- la, la|mia ce- le- ste|per-|la, la|terr' ogn' hor|d'al- te vir-|tu- di, d'al-|
 G2 FE D2 C2 | G8 | C8 |] %42
w: * te vir- tu- d'im-|per-|la.|

